icon-themes/breeze_svg/cmd/32/removefiltersort.svg

<svg viewBox="0 0 32 32" xmlns="http://www.w3.org/2000/svg"><path d="m6.2929688 4-1.2929688 1.2929688v2.5390624c.0547565.0398968 8 10.6679688 8 10.6679688v5.007812l6 4.501954v-9.509766l8-10.6679688v-2.5390624l-1.292969-1.2929688zm.4140624 1h18.5859378l.707031.7070312v1.7949219l-8 10.6660159v7.841797c-1.160354-.866771-2.714504-2.03362-4-3v-4.841797l-8-10.6660159v-1.7949219zm.2929688 1 5 6.5c-.01531.0051 0-3.5 0-3.5l3-3z" fill="#4d4d4d"/><path d="m20.707031 20-.707031.707031 3.292969 3.292969-3.292969 3.292969c.0126.0252.707031.707031.707031.707031l3.292969-3.292969 3.292969 3.292969.707031-.707031-3.292969-3.292969 3.292969-3.292969-.707031-.707031-3.292969 3.292969z" fill="#da4453"/></svg>

<svg xmlns="http://www.w3.org/2000/svg" viewBox="0 0 32 32">
 <path 
     style="fill:#4d4d4d" 
     d="M 6.2929688 4 L 5 5.2929688 L 5 7.8320312 C 5.0547565 7.871928 13 18.5 13 18.5 L 13 23.507812 L 19 28.009766 L 19 18.5 L 27 7.8320312 L 27 5.2929688 L 25.707031 4 L 6.2929688 4 z M 6.7070312 5 L 25.292969 5 L 26 5.7070312 L 26 7.5019531 L 18 18.167969 L 18 26.009766 C 16.839646 25.142995 15.285496 23.976146 14 23.009766 L 14 18.167969 L 6 7.5019531 L 6 5.7070312 L 6.7070312 5 z M 7 6 L 12 12.5 C 11.98469 12.5051 12 9 12 9 L 15 6 L 7 6 z "
     />
 <path 
     style="fill:#da4453" 
     d="M 20.707031 20 L 20 20.707031 L 23.292969 24 L 20 27.292969 C 20.0126 27.318169 20.707031 28 20.707031 28 L 24 24.707031 L 27.292969 28 L 28 27.292969 L 24.707031 24 L 28 20.707031 L 27.292969 20 L 24 23.292969 L 20.707031 20 z "
     />
</svg>
